apps/static/images/Espazum_logo_blanco.svg

<svg width="143" height="30" viewBox="0 0 143 30" fill="none" xmlns="http://www.w3.org/2000/svg">
<path d="M6.04317 4.8407V8.38643H12.9805V12.9805H6.04317V16.8962H13.9054V21.7369H0V0H13.9054V4.8407H6.04317Z" fill="white"/>
<path d="M24.2606 21.9527C22.6984 21.9527 21.3007 21.6958 20.0674 21.1819C18.8546 20.6475 17.8885 19.9281 17.1691 19.0236C16.4702 18.0987 16.0797 17.0606 15.9975 15.9096H21.8556C21.9379 16.4645 22.1948 16.8962 22.6265 17.2045C23.0581 17.5128 23.5925 17.667 24.2298 17.667C24.7231 17.667 25.1136 17.5642 25.4014 17.3587C25.6892 17.1531 25.833 16.8859 25.833 16.557C25.833 16.1254 25.5967 15.8068 25.1239 15.6012C24.6511 15.3957 23.87 15.1696 22.7806 14.9229C21.5473 14.6763 20.5196 14.3988 19.6974 14.0904C18.8752 13.7821 18.1558 13.2785 17.5391 12.5797C16.943 11.8808 16.645 10.9353 16.645 9.74306C16.645 8.71531 16.9225 7.79034 17.4774 6.96814C18.0324 6.12539 18.8443 5.45735 19.9132 4.96403C21.0026 4.47071 22.3079 4.22405 23.8289 4.22405C26.09 4.22405 27.868 4.77903 29.1629 5.889C30.4579 6.99897 31.2082 8.45838 31.4137 10.2672H25.9564C25.8536 9.71223 25.6069 9.29085 25.2164 9.00308C24.8464 8.69476 24.3428 8.5406 23.7056 8.5406C23.2123 8.5406 22.832 8.63309 22.5648 8.81809C22.3181 9.00308 22.1948 9.26002 22.1948 9.5889C22.1948 10 22.4312 10.3186 22.904 10.5447C23.3767 10.7503 24.1373 10.9661 25.1856 11.1922C26.4394 11.4594 27.4774 11.7575 28.2996 12.0863C29.1424 12.4152 29.8721 12.9496 30.4887 13.6896C31.1259 14.409 31.4445 15.3957 31.4445 16.6495C31.4445 17.6567 31.1465 18.5612 30.5504 19.3628C29.9749 20.1644 29.1424 20.8016 28.053 21.2744C26.9841 21.7266 25.72 21.9527 24.2606 21.9527Z" fill="white"/>
<path d="M40.4587 6.84481C40.9315 6.04317 41.5995 5.40596 42.4628 4.9332C43.3261 4.46043 44.3436 4.22405 45.5152 4.22405C46.8924 4.22405 48.136 4.58376 49.246 5.30319C50.3765 6.02261 51.2604 7.05036 51.8976 8.38643C52.5553 9.72251 52.8842 11.2847 52.8842 13.073C52.8842 14.8613 52.5553 16.4337 51.8976 17.7903C51.2604 19.1264 50.3765 20.1542 49.246 20.8736C48.136 21.593 46.8924 21.9527 45.5152 21.9527C44.3436 21.9527 43.3261 21.7163 42.4628 21.2436C41.6201 20.7708 40.952 20.1336 40.4587 19.332V30H34.4156V4.43988H40.4587V6.84481ZM46.7485 13.073C46.7485 11.9424 46.4402 11.0689 45.8236 10.4522C45.2275 9.81501 44.4875 9.4964 43.6036 9.4964C42.7198 9.4964 41.9695 9.81501 41.3529 10.4522C40.7568 11.0894 40.4587 11.963 40.4587 13.073C40.4587 14.2035 40.7568 15.0874 41.3529 15.7246C41.9695 16.3618 42.7198 16.6804 43.6036 16.6804C44.4875 16.6804 45.2275 16.3618 45.8236 15.7246C46.4402 15.0668 46.7485 14.1829 46.7485 13.073Z" fill="white"/>
<path d="M54.3854 13.073C54.3854 11.2847 54.704 9.72251 55.3412 8.38643C55.9989 7.05036 56.8828 6.02261 57.9928 5.30319C59.1233 4.58376 60.3771 4.22405 61.7543 4.22405C62.9465 4.22405 63.9743 4.46043 64.8376 4.9332C65.7009 5.40596 66.3689 6.04317 66.8417 6.84481V4.43988H72.8848V21.7369H66.8417V19.332C66.3689 20.1336 65.6906 20.7708 64.8067 21.2436C63.9434 21.7163 62.926 21.9527 61.7543 21.9527C60.3771 21.9527 59.1233 21.593 57.9928 20.8736C56.8828 20.1542 55.9989 19.1264 55.3412 17.7903C54.704 16.4337 54.3854 14.8613 54.3854 13.073ZM66.8417 13.073C66.8417 11.963 66.5334 11.0894 65.9167 10.4522C65.3206 9.81501 64.5806 9.4964 63.6968 9.4964C62.7924 9.4964 62.0421 9.81501 61.446 10.4522C60.8499 11.0689 60.5519 11.9424 60.5519 13.073C60.5519 14.1829 60.8499 15.0668 61.446 15.7246C62.0421 16.3618 62.7924 16.6804 63.6968 16.6804C64.5806 16.6804 65.3206 16.3618 65.9167 15.7246C66.5334 15.0874 66.8417 14.2035 66.8417 13.073Z" fill="white"/>
<path d="M82.0633 16.7112H89.4323V21.7369H75.4035V16.9579L82.2791 9.46557H75.4651V4.43988H89.1856V9.21891L82.0633 16.7112Z" fill="white"/>
<path d="M109.653 4.43988V21.7369H103.579V19.2703C103.065 20.0514 102.356 20.6886 101.452 21.1819C100.547 21.6547 99.5094 21.8911 98.3378 21.8911C96.3234 21.8911 94.7304 21.2333 93.5588 19.9178C92.4077 18.5817 91.8321 16.7729 91.8321 14.4913V4.43988H97.8445V13.7205C97.8445 14.7071 98.1014 15.4882 98.6153 16.0637C99.1497 16.6187 99.8486 16.8962 100.712 16.8962C101.596 16.8962 102.295 16.6187 102.808 16.0637C103.322 15.4882 103.579 14.7071 103.579 13.7205V4.43988H109.653Z" fill="white"/>
<path d="M135.693 4.28571C137.872 4.28571 139.578 4.94347 140.811 6.25899C142.065 7.57451 142.692 9.37307 142.692 11.6547V21.7369H136.649V12.4563C136.649 11.5313 136.392 10.8119 135.878 10.298C135.364 9.78417 134.665 9.52724 133.781 9.52724C132.897 9.52724 132.198 9.78417 131.685 10.298C131.171 10.8119 130.914 11.5313 130.914 12.4563V21.7369H124.871V12.4563C124.871 11.5313 124.614 10.8119 124.1 10.298C123.606 9.78417 122.918 9.52724 122.034 9.52724C121.13 9.52724 120.42 9.78417 119.907 10.298C119.393 10.8119 119.136 11.5313 119.136 12.4563V21.7369H113.093V4.43988H119.136V6.72148C119.67 5.9815 120.359 5.39568 121.202 4.96403C122.065 4.51182 123.051 4.28571 124.161 4.28571C125.436 4.28571 126.566 4.56321 127.553 5.11819C128.56 5.67318 129.352 6.45427 129.927 7.46146C130.544 6.51593 131.356 5.7554 132.363 5.17986C133.37 4.58376 134.48 4.28571 135.693 4.28571Z" fill="white"/>
</svg>

<svg width="143" height="30" fill="none" xmlns="http://www.w3.org/2000/svg"><path d="M6.043 4.84v3.546h6.937v4.595H6.043v3.915h7.862v4.84H0V0h13.905v4.84H6.043zM24.26 21.953c-1.562 0-2.96-.257-4.193-.771-1.212-.534-2.178-1.254-2.898-2.158a5.741 5.741 0 01-1.171-3.114h5.858c.082.555.339.986.77 1.294.432.309.966.463 1.604.463.493 0 .884-.103 1.171-.308.288-.206.432-.473.432-.802 0-.432-.236-.75-.71-.956-.472-.205-1.253-.431-2.342-.678-1.234-.247-2.261-.524-3.084-.833a5.366 5.366 0 01-2.158-1.51c-.596-.7-.894-1.645-.894-2.837 0-1.028.277-1.953.832-2.775.555-.843 1.367-1.51 2.436-2.004 1.09-.493 2.395-.74 3.916-.74 2.261 0 4.039.555 5.334 1.665 1.295 1.11 2.045 2.57 2.25 4.378h-5.457c-.102-.555-.35-.976-.74-1.264-.37-.308-.873-.462-1.51-.462-.494 0-.874.092-1.141.277-.247.185-.37.442-.37.77 0 .412.236.73.709.957.473.205 1.233.421 2.282.647 1.253.267 2.291.566 3.114.894.842.33 1.572.864 2.189 1.604.637.719.956 1.706.956 2.96a4.433 4.433 0 01-.895 2.713c-.575.801-1.408 1.439-2.497 1.911-1.069.453-2.333.679-3.792.679zM40.459 6.845c.472-.802 1.14-1.439 2.004-1.912.863-.473 1.88-.709 3.052-.709 1.377 0 2.621.36 3.731 1.08 1.13.719 2.014 1.746 2.652 3.082.657 1.337.986 2.899.986 4.687 0 1.788-.329 3.36-.986 4.717-.638 1.336-1.522 2.364-2.652 3.084-1.11.719-2.354 1.079-3.73 1.079-1.172 0-2.19-.237-3.053-.71a5.427 5.427 0 01-2.004-1.911V30h-6.043V4.44h6.043v2.405zm6.29 6.228c0-1.13-.309-2.004-.925-2.62-.596-.638-1.337-.957-2.22-.957-.884 0-1.635.319-2.251.956-.596.637-.894 1.511-.894 2.621 0 1.13.298 2.014.894 2.652a3.014 3.014 0 002.25.955c.884 0 1.624-.318 2.22-.955.617-.658.925-1.542.925-2.652zm7.636 0c0-1.788.319-3.35.956-4.687.658-1.336 1.542-2.363 2.652-3.083 1.13-.72 2.384-1.079 3.761-1.079 1.193 0 2.22.236 3.084.71.863.472 1.53 1.11 2.004 1.91V4.44h6.043v17.297h-6.043v-2.405c-.473.802-1.151 1.439-2.035 1.912-.864.472-1.881.709-3.053.709-1.377 0-2.63-.36-3.761-1.08-1.11-.719-1.994-1.747-2.652-3.083-.637-1.356-.956-2.929-.956-4.717zm12.457 0c0-1.11-.309-1.984-.925-2.62-.596-.638-1.336-.957-2.22-.957-.905 0-1.655.319-2.251.956-.596.617-.894 1.49-.894 2.621 0 1.11.298 1.994.894 2.652.596.637 1.346.955 2.25.955.885 0 1.625-.318 2.22-.955.617-.638.926-1.521.926-2.652zm15.221 3.638h7.37v5.026h-14.03v-4.78l6.876-7.491h-6.814V4.44h13.72v4.779l-7.122 7.492zm27.59-12.271v17.297h-6.074V19.27c-.514.781-1.223 1.419-2.127 1.912-.905.473-1.943.71-3.114.71-2.015 0-3.608-.659-4.78-1.974-1.15-1.336-1.726-3.145-1.726-5.427V4.44h6.013v9.28c0 .987.256 1.768.77 2.344.535.555 1.234.832 2.097.832.884 0 1.583-.277 2.096-.832.514-.576.771-1.357.771-2.344V4.44h6.074zm26.04-.154c2.179 0 3.885.657 5.118 1.973 1.254 1.316 1.881 3.114 1.881 5.396v10.082h-6.043v-9.28c0-.926-.257-1.645-.771-2.159-.514-.514-1.213-.77-2.097-.77-.884 0-1.583.256-2.096.77-.514.514-.771 1.233-.771 2.158v9.28h-6.043v-9.28c0-.925-.257-1.644-.771-2.158-.494-.514-1.182-.77-2.066-.77-.904 0-1.614.256-2.127.77-.514.514-.771 1.233-.771 2.158v9.28h-6.043V4.44h6.043v2.28a5.718 5.718 0 012.066-1.757c.863-.452 1.849-.678 2.959-.678 1.275 0 2.405.277 3.392.832a6.049 6.049 0 012.374 2.343 7.02 7.02 0 012.436-2.281 6.416 6.416 0 013.33-.894z" fill="#fff"/></svg>
